Newaita-dark/apps/24/toggldesktop.svg

<svg height="24" viewBox="0 0 24 24" width="24" xmlns="http://www.w3.org/2000/svg" xmlns:xlink="http://www.w3.org/1999/xlink"><linearGradient id="a"><stop offset="0" stop-opacity=".313726"/><stop offset=".222222" stop-opacity=".27451"/><stop offset="1" stop-opacity="0"/></linearGradient><radialGradient id="b" cx="450.908936" cy="189.579361" gradientTransform="matrix(.00000013 -.0585994 -.105479 -.00000008 33.392364 47.696497)" gradientUnits="userSpaceOnUse" r="21.166656" xlink:href="#a"/><radialGradient id="c" cx="450.908936" cy="189.579361" gradientTransform="matrix(-.00000013 .0585994 .105479 .00000008 -9.577589 -5.645612)" gradientUnits="userSpaceOnUse" r="21.166656" xlink:href="#a"/><radialGradient id="d" cx="450.908936" cy="189.579361" gradientTransform="matrix(-.00000013 -.0585994 .105479 -.00000008 -9.577589 47.696497)" gradientUnits="userSpaceOnUse" r="21.166656" xlink:href="#a"/><radialGradient id="e" cx="450.908936" cy="189.579361" gradientTransform="matrix(.00000013 .0585994 -.105479 .00000008 33.392362 -5.645612)" gradientUnits="userSpaceOnUse" r="21.166656" xlink:href="#a"/><linearGradient id="f" gradientTransform="matrix(.01002 0 0 .0468795 9.34904 10.079088)" gradientUnits="userSpaceOnUse" x1="255.323059" x2="255.323044" y1="233.5" y2="254.666656"><stop offset="0" stop-opacity=".27451"/><stop offset="1" stop-opacity="0"/></linearGradient><linearGradient id="g" gradientUnits="userSpaceOnUse" x1="254" x2="254" y1="-168.666672" y2="233.5"><stop offset="0" stop-color="#ef5350"/><stop offset="1" stop-color="#f44336"/></linearGradient><linearGradient id="h" gradientUnits="userSpaceOnUse" x1="11.90736" x2="11.90736" y1="21.02539814717" y2="2.17207757661"><stop offset="0" stop-color="#bdbdbd"/><stop offset="1" stop-color="#e0e0e0"/></linearGradient><path d="m13.644531 21.027344h1.984375v-.996094h-1.984375zm0 0" fill="url(#b)"/><path d="m10.171875 21.027344h-1.984375v.992187h1.984375zm0 0" fill="url(#c)"/><path d="m10.171875 21.027344h-1.984375v-.996094h1.984375zm0 0" fill="url(#d)"/><path d="m13.644531 21.027344h1.984375v.992187h-1.984375zm0 0" fill="url(#e)"/><path d="m10.171875 20.777344h3.472656v1.242187h-3.472656zm0 0" fill="url(#f)"/><path d="m253.975747-168.671091c111.072726 0 201.147458 89.991406 201.147458 201.064133 0 111.072726-90.074732 201.147458-201.147458 201.147458-110.989402 0-201.064133-90.074732-201.064133-201.147458 0-111.072727 90.074731-201.064133 201.064133-201.064133zm0 0" fill="url(#g)" stroke="#333" stroke-linecap="round" stroke-width="3" transform="matrix(.0468795 0 0 .0468795 0 10.079087)"/><path d="m11.90625 21.027344c-5.222656 0-9.425781-4.207032-9.425781-9.429688 0-.03125 0-.058594 0-.089844.050781 5.179688 4.234375 9.332032 9.425781 9.332032s9.378906-4.152344 9.425781-9.332032c0 .03125.003907.058594.003907.089844 0 5.222656-4.207032 9.429688-9.429688 9.429688zm0 0" fill-opacity=".196078"/><path d="m11.90625 2.171875c-5.222656 0-9.425781 4.203125-9.425781 9.425781v.09375c.050781-5.179687 4.234375-9.335937 9.425781-9.335937s9.378906 4.15625 9.425781 9.335937c0-.03125.003907-.0625.003907-.09375 0-5.222656-4.207032-9.425781-9.429688-9.425781zm0 0" fill="#fff" fill-opacity=".392157"/><path d="m11.90625 2.101562c-5.257812 0-9.496094 4.238282-9.496094 9.496094 0 5.261719 4.238282 9.5 9.496094 9.5 5.261719 0 9.5-4.238281 9.5-9.5 0-5.257812-4.238281-9.496094-9.5-9.496094zm0 .140626c5.1875 0 9.359375 4.171874 9.359375 9.355468 0 5.1875-4.171875 9.359375-9.359375 9.359375-5.183594 0-9.355469-4.171875-9.355469-9.359375 0-5.183594 4.171875-9.355468 9.355469-9.355468zm0 0" fill="#212121"/><path d="m11.90625 6.140625c-.273438 0-.496094.222656-.496094.496094v4.960937c0 .277344.222656.496094.496094.496094.277344 0 .496094-.21875.496094-.496094v-4.960937c0-.273438-.21875-.496094-.496094-.496094zm-.992188 1.101563c-1.992187.449218-3.472656 2.222656-3.472656 4.355468 0 2.476563 1.992188 4.464844 4.464844 4.464844 2.476562 0 4.464844-1.988281 4.464844-4.464844 0-2.132812-1.476563-3.90625-3.472656-4.355468v1.027343c1.4375.425781 2.480468 1.75 2.480468 3.328125 0 1.925782-1.546875 3.472656-3.472656 3.472656-1.921875 0-3.472656-1.546874-3.472656-3.472656 0-1.578125 1.042968-2.902344 2.480468-3.328125zm0 0" fill="url(#h)"/><path d="m11.90625 6.140625c-.273438 0-.496094.222656-.496094.496094v.25c0-.277344.222656-.496094.496094-.496094.277344 0 .496094.21875.496094.496094v-.25c0-.273438-.21875-.496094-.496094-.496094zm-.992188 1.101563c-1.992187.449218-3.472656 2.222656-3.472656 4.355468 0 .042969 0 .085938.003906.128906.054688-2.078124 1.515626-3.792968 3.46875-4.234374zm1.984376 0v.25c1.957031.441406 3.417968 2.15625 3.472656 4.234374 0-.042968 0-.085937 0-.128906 0-2.132812-1.476563-3.90625-3.472656-4.355468zm-4.460938 4.480468c-.003906.039063-.003906.082032-.003906.125 0 1.921875 1.550781 3.472656 3.472656 3.472656 1.925781 0 3.472656-1.550781 3.472656-3.472656 0-.042968 0-.085937 0-.125-.066406 1.867188-1.589844 3.347656-3.472656 3.347656s-3.40625-1.480468-3.46875-3.347656zm0 0" fill="#fff"/><path d="m10.914062 8.324219c-1.363281.402343-2.371093 1.617187-2.472656 3.085937 0-.019531 0-.035156 0-.054687-.003906.0625-.007812.125-.007812.1875 0 .078125.003906.160156.007812.238281.101563-1.46875 1.109375-2.683594 2.472656-3.085938zm1.984376 0v.371093c1.363281.402344 2.375 1.617188 2.472656 3.085938.007812-.078125.007812-.160156.007812-.238281 0-.0625 0-.125-.003906-.1875 0 .019531 0 .035156-.003906.054687-.097656-1.46875-1.109375-2.683594-2.472656-3.085937zm-1.488282 3.328125v.371094c0 .277343.222656.496093.496094.496093.277344 0 .496094-.21875.496094-.496093v-.371094c0 .277344-.21875.496094-.496094.496094-.273438 0-.496094-.21875-.496094-.496094zm-3.964844.1875c0 .0625-.003906.125-.003906.183594 0 2.476562 1.992188 4.46875 4.464844 4.46875 2.476562 0 4.464844-1.992188 4.464844-4.46875 0-.058594 0-.121094-.003906-.183594-.097657 2.386718-2.050782 4.277344-4.460938 4.277344s-4.363281-1.890626-4.460938-4.277344zm0 0" fill-opacity=".235294"/><path d="m959.908384 495.070859c-22.04514 0-39.996183 17.951043-39.996183 39.996183v399.961827c0 22.36007 17.951043 39.996182 39.996183 39.996182 22.36007 0 39.996182-17.636112 39.996182-39.996182v-399.961827c0-22.04514-17.636112-39.996183-39.996182-39.996183zm-79.992366 88.810422c-160.614591 36.217015-279.973278 179.195495-279.973278 351.147588 0 199.665982 160.614592 359.965644 359.965644 359.965644 199.665983 0 359.965644-160.299662 359.965644-359.965644 0-171.952093-119.043757-314.930573-279.973279-351.147588v82.82674c115.894451 34.327433 199.980913 141.088896 199.980913 268.320848 0 155.260772-124.712506 279.973278-279.973278 279.973278-154.945842 0-279.973279-124.712506-279.973279-279.973278 0-127.231952 84.086463-233.993415 199.980913-268.320848zm0 0" fill="none" stroke="#212121" stroke-linecap="round" stroke-linejoin="round" stroke-width="11.338583" transform="scale(.0124035)"/></svg>

<?xml version="1.0" encoding="UTF-8"?>
<svg xmlns="http://www.w3.org/2000/svg" xmlns:xlink="http://www.w3.org/1999/xlink" width="24px" height="24px" viewBox="0 0 24 24" version="1.1">
<defs>
<radialGradient id="radial0" gradientUnits="userSpaceOnUse" cx="450.908936" cy="189.579361" fx="450.908936" fy="189.579361" r="21.166656" gradientTransform="matrix(0.000000130628,-0.0585994,-0.105479,-0.0000000761539,33.392364,47.696497)">
<stop offset="0" style="stop-color:rgb(0%,0%,0%);stop-opacity:0.313726;"/>
<stop offset="0.222222" style="stop-color:rgb(0%,0%,0%);stop-opacity:0.27451;"/>
<stop offset="1" style="stop-color:rgb(0%,0%,0%);stop-opacity:0;"/>
</radialGradient>
<radialGradient id="radial1" gradientUnits="userSpaceOnUse" cx="450.908936" cy="189.579361" fx="450.908936" fy="189.579361" r="21.166656" gradientTransform="matrix(-0.000000130628,0.0585994,0.105479,0.0000000761539,-9.577589,-5.645612)">
<stop offset="0" style="stop-color:rgb(0%,0%,0%);stop-opacity:0.313726;"/>
<stop offset="0.222222" style="stop-color:rgb(0%,0%,0%);stop-opacity:0.27451;"/>
<stop offset="1" style="stop-color:rgb(0%,0%,0%);stop-opacity:0;"/>
</radialGradient>
<radialGradient id="radial2" gradientUnits="userSpaceOnUse" cx="450.908936" cy="189.579361" fx="450.908936" fy="189.579361" r="21.166656" gradientTransform="matrix(-0.000000130628,-0.0585994,0.105479,-0.0000000761539,-9.577589,47.696497)">
<stop offset="0" style="stop-color:rgb(0%,0%,0%);stop-opacity:0.313726;"/>
<stop offset="0.222222" style="stop-color:rgb(0%,0%,0%);stop-opacity:0.27451;"/>
<stop offset="1" style="stop-color:rgb(0%,0%,0%);stop-opacity:0;"/>
</radialGradient>
<radialGradient id="radial3" gradientUnits="userSpaceOnUse" cx="450.908936" cy="189.579361" fx="450.908936" fy="189.579361" r="21.166656" gradientTransform="matrix(0.000000130628,0.0585994,-0.105479,0.0000000761539,33.392362,-5.645612)">
<stop offset="0" style="stop-color:rgb(0%,0%,0%);stop-opacity:0.313726;"/>
<stop offset="0.222222" style="stop-color:rgb(0%,0%,0%);stop-opacity:0.27451;"/>
<stop offset="1" style="stop-color:rgb(0%,0%,0%);stop-opacity:0;"/>
</radialGradient>
<linearGradient id="linear0" gradientUnits="userSpaceOnUse" x1="255.323059" y1="233.5" x2="255.323044" y2="254.666656" gradientTransform="matrix(0.01002,0,0,0.0468795,9.34904,10.079088)">
<stop offset="0" style="stop-color:rgb(0%,0%,0%);stop-opacity:0.27451;"/>
<stop offset="1" style="stop-color:rgb(0%,0%,0%);stop-opacity:0;"/>
</linearGradient>
<linearGradient id="linear1" gradientUnits="userSpaceOnUse" x1="254" y1="-168.666672" x2="254" y2="233.5" gradientTransform="matrix(1,0,0,1,0,0)">
<stop offset="0" style="stop-color:rgb(93.725491%,32.549021%,31.37255%);stop-opacity:1;"/>
<stop offset="1" style="stop-color:rgb(95.686275%,26.274511%,21.176471%);stop-opacity:1;"/>
</linearGradient>
<linearGradient id="linear2" gradientUnits="userSpaceOnUse" x1="960" y1="1695.118164" x2="960" y2="175.118118" gradientTransform="matrix(0.0124035,0,0,0.0124035,0,0.00000000000000141)">
<stop offset="0" style="stop-color:rgb(74.117649%,74.117649%,74.117649%);stop-opacity:1;"/>
<stop offset="1" style="stop-color:rgb(87.843138%,87.843138%,87.843138%);stop-opacity:1;"/>
</linearGradient>
</defs>
<g id="surface1">
<path style=" stroke:none;fill-rule:nonzero;fill:url(#radial0);" d="M 13.644531 21.027344 L 15.628906 21.027344 L 15.628906 20.03125 L 13.644531 20.03125 Z M 13.644531 21.027344 "/>
<path style=" stroke:none;fill-rule:nonzero;fill:url(#radial1);" d="M 10.171875 21.027344 L 8.1875 21.027344 L 8.1875 22.019531 L 10.171875 22.019531 Z M 10.171875 21.027344 "/>
<path style=" stroke:none;fill-rule:nonzero;fill:url(#radial2);" d="M 10.171875 21.027344 L 8.1875 21.027344 L 8.1875 20.03125 L 10.171875 20.03125 Z M 10.171875 21.027344 "/>
<path style=" stroke:none;fill-rule:nonzero;fill:url(#radial3);" d="M 13.644531 21.027344 L 15.628906 21.027344 L 15.628906 22.019531 L 13.644531 22.019531 Z M 13.644531 21.027344 "/>
<path style=" stroke:none;fill-rule:nonzero;fill:url(#linear0);" d="M 10.171875 20.777344 L 13.644531 20.777344 L 13.644531 22.019531 L 10.171875 22.019531 Z M 10.171875 20.777344 "/>
<path style="fill-rule:nonzero;fill:url(#linear1);stroke-width:3;stroke-linecap:round;stroke-linejoin:miter;stroke:rgb(20%,20%,20%);stroke-opacity:1;stroke-miterlimit:4;" d="M 253.975747 -168.671091 C 365.048473 -168.671091 455.123205 -78.679685 455.123205 32.393042 C 455.123205 143.465768 365.048473 233.5405 253.975747 233.5405 C 142.986345 233.5405 52.911614 143.465768 52.911614 32.393042 C 52.911614 -78.679685 142.986345 -168.671091 253.975747 -168.671091 Z M 253.975747 -168.671091 " transform="matrix(0.0468795,0,0,0.0468795,0,10.079087)"/>
<path style=" stroke:none;fill-rule:nonzero;fill:rgb(0%,0%,0%);fill-opacity:0.196078;" d="M 11.90625 21.027344 C 6.683594 21.027344 2.480469 16.820312 2.480469 11.597656 C 2.480469 11.566406 2.480469 11.539062 2.480469 11.507812 C 2.53125 16.6875 6.714844 20.839844 11.90625 20.839844 C 17.097656 20.839844 21.285156 16.6875 21.332031 11.507812 C 21.332031 11.539062 21.335938 11.566406 21.335938 11.597656 C 21.335938 16.820312 17.128906 21.027344 11.90625 21.027344 Z M 11.90625 21.027344 "/>
<path style=" stroke:none;fill-rule:nonzero;fill:rgb(100%,100%,100%);fill-opacity:0.392157;" d="M 11.90625 2.171875 C 6.683594 2.171875 2.480469 6.375 2.480469 11.597656 C 2.480469 11.628906 2.480469 11.660156 2.480469 11.691406 C 2.53125 6.511719 6.714844 2.355469 11.90625 2.355469 C 17.097656 2.355469 21.285156 6.511719 21.332031 11.691406 C 21.332031 11.660156 21.335938 11.628906 21.335938 11.597656 C 21.335938 6.375 17.128906 2.171875 11.90625 2.171875 Z M 11.90625 2.171875 "/>
<path style=" stroke:none;fill-rule:nonzero;fill:rgb(12.941177%,12.941177%,12.941177%);fill-opacity:1;" d="M 11.90625 2.101562 C 6.648438 2.101562 2.410156 6.339844 2.410156 11.597656 C 2.410156 16.859375 6.648438 21.097656 11.90625 21.097656 C 17.167969 21.097656 21.40625 16.859375 21.40625 11.597656 C 21.40625 6.339844 17.167969 2.101562 11.90625 2.101562 Z M 11.90625 2.242188 C 17.09375 2.242188 21.265625 6.414062 21.265625 11.597656 C 21.265625 16.785156 17.09375 20.957031 11.90625 20.957031 C 6.722656 20.957031 2.550781 16.785156 2.550781 11.597656 C 2.550781 6.414062 6.722656 2.242188 11.90625 2.242188 Z M 11.90625 2.242188 "/>
<path style=" stroke:none;fill-rule:nonzero;fill:url(#linear2);" d="M 11.90625 6.140625 C 11.632812 6.140625 11.410156 6.363281 11.410156 6.636719 L 11.410156 11.597656 C 11.410156 11.875 11.632812 12.09375 11.90625 12.09375 C 12.183594 12.09375 12.402344 11.875 12.402344 11.597656 L 12.402344 6.636719 C 12.402344 6.363281 12.183594 6.140625 11.90625 6.140625 Z M 10.914062 7.242188 C 8.921875 7.691406 7.441406 9.464844 7.441406 11.597656 C 7.441406 14.074219 9.433594 16.0625 11.90625 16.0625 C 14.382812 16.0625 16.371094 14.074219 16.371094 11.597656 C 16.371094 9.464844 14.894531 7.691406 12.898438 7.242188 L 12.898438 8.269531 C 14.335938 8.695312 15.378906 10.019531 15.378906 11.597656 C 15.378906 13.523438 13.832031 15.070312 11.90625 15.070312 C 9.984375 15.070312 8.433594 13.523438 8.433594 11.597656 C 8.433594 10.019531 9.476562 8.695312 10.914062 8.269531 Z M 10.914062 7.242188 "/>
<path style=" stroke:none;fill-rule:nonzero;fill:rgb(100%,100%,100%);fill-opacity:1;" d="M 11.90625 6.140625 C 11.632812 6.140625 11.410156 6.363281 11.410156 6.636719 L 11.410156 6.886719 C 11.410156 6.609375 11.632812 6.390625 11.90625 6.390625 C 12.183594 6.390625 12.402344 6.609375 12.402344 6.886719 L 12.402344 6.636719 C 12.402344 6.363281 12.183594 6.140625 11.90625 6.140625 Z M 10.914062 7.242188 C 8.921875 7.691406 7.441406 9.464844 7.441406 11.597656 C 7.441406 11.640625 7.441406 11.683594 7.445312 11.726562 C 7.5 9.648438 8.960938 7.933594 10.914062 7.492188 Z M 12.898438 7.242188 L 12.898438 7.492188 C 14.855469 7.933594 16.316406 9.648438 16.371094 11.726562 C 16.371094 11.683594 16.371094 11.640625 16.371094 11.597656 C 16.371094 9.464844 14.894531 7.691406 12.898438 7.242188 Z M 8.4375 11.722656 C 8.433594 11.761719 8.433594 11.804688 8.433594 11.847656 C 8.433594 13.769531 9.984375 15.320312 11.90625 15.320312 C 13.832031 15.320312 15.378906 13.769531 15.378906 11.847656 C 15.378906 11.804688 15.378906 11.761719 15.378906 11.722656 C 15.3125 13.589844 13.789062 15.070312 11.90625 15.070312 C 10.023438 15.070312 8.5 13.589844 8.4375 11.722656 Z M 8.4375 11.722656 "/>
<path style=" stroke:none;fill-rule:nonzero;fill:rgb(0%,0%,0%);fill-opacity:0.235294;" d="M 10.914062 8.324219 C 9.550781 8.726562 8.542969 9.941406 8.441406 11.410156 C 8.441406 11.390625 8.441406 11.375 8.441406 11.355469 C 8.4375 11.417969 8.433594 11.480469 8.433594 11.542969 C 8.433594 11.621094 8.4375 11.703125 8.441406 11.78125 C 8.542969 10.3125 9.550781 9.097656 10.914062 8.695312 Z M 12.898438 8.324219 L 12.898438 8.695312 C 14.261719 9.097656 15.273438 10.3125 15.371094 11.78125 C 15.378906 11.703125 15.378906 11.621094 15.378906 11.542969 C 15.378906 11.480469 15.378906 11.417969 15.375 11.355469 C 15.375 11.375 15.375 11.390625 15.371094 11.410156 C 15.273438 9.941406 14.261719 8.726562 12.898438 8.324219 Z M 11.410156 11.652344 L 11.410156 12.023438 C 11.410156 12.300781 11.632812 12.519531 11.90625 12.519531 C 12.183594 12.519531 12.402344 12.300781 12.402344 12.023438 L 12.402344 11.652344 C 12.402344 11.929688 12.183594 12.148438 11.90625 12.148438 C 11.632812 12.148438 11.410156 11.929688 11.410156 11.652344 Z M 7.445312 11.839844 C 7.445312 11.902344 7.441406 11.964844 7.441406 12.023438 C 7.441406 14.5 9.433594 16.492188 11.90625 16.492188 C 14.382812 16.492188 16.371094 14.5 16.371094 12.023438 C 16.371094 11.964844 16.371094 11.902344 16.367188 11.839844 C 16.269531 14.226562 14.316406 16.117188 11.90625 16.117188 C 9.496094 16.117188 7.542969 14.226562 7.445312 11.839844 Z M 7.445312 11.839844 "/>
<path style="fill:none;stroke-width:11.338583;stroke-linecap:round;stroke-linejoin:round;stroke:rgb(12.941177%,12.941177%,12.941177%);stroke-opacity:1;stroke-miterlimit:4;" d="M 959.908384 495.070859 C 937.863244 495.070859 919.912201 513.021902 919.912201 535.067042 L 919.912201 935.028869 C 919.912201 957.388939 937.863244 975.025051 959.908384 975.025051 C 982.268454 975.025051 999.904566 957.388939 999.904566 935.028869 L 999.904566 535.067042 C 999.904566 513.021902 982.268454 495.070859 959.908384 495.070859 Z M 879.916018 583.881281 C 719.301427 620.098296 599.94274 763.076776 599.94274 935.028869 C 599.94274 1134.694851 760.557332 1294.994513 959.908384 1294.994513 C 1159.574367 1294.994513 1319.874028 1134.694851 1319.874028 935.028869 C 1319.874028 763.076776 1200.830271 620.098296 1039.900749 583.881281 L 1039.900749 666.708021 C 1155.7952 701.035454 1239.881662 807.796917 1239.881662 935.028869 C 1239.881662 1090.289641 1115.169156 1215.002147 959.908384 1215.002147 C 804.962542 1215.002147 679.935105 1090.289641 679.935105 935.028869 C 679.935105 807.796917 764.021568 701.035454 879.916018 666.708021 Z M 879.916018 583.881281 " transform="matrix(0.0124035,0,0,0.0124035,0,0)"/>
</g>
</svg>
